assets/images/my-account/recover-password.svg

<svg xmlns="http://www.w3.org/2000/svg" height="591pt" version="1.1" viewBox="1 1 591.601 591" width="591pt">
<g id="surface1">
<path d="M 479.722656 204.4375 L 71.449219 204.4375 C 48.902344 204.4375 30.621094 222.71875 30.621094 245.265625 L 30.621094 592.300781 L 520.550781 592.300781 L 520.550781 245.265625 C 520.550781 222.71875 502.269531 204.4375 479.722656 204.4375 Z M 479.722656 204.4375 " style=" stroke:none;fill-rule:nonzero;fill:rgb(78.039216%,79.215686%,80%);fill-opacity:1;" />
<path d="M 479.722656 571.886719 L 479.722656 265.679688 C 479.722656 254.402344 470.589844 245.265625 459.308594 245.265625 L 91.863281 245.265625 C 80.582031 245.265625 71.449219 254.402344 71.449219 265.679688 L 71.449219 571.886719 Z M 479.722656 571.886719 " style=" stroke:none;fill-rule:nonzero;fill:rgb(26.27451%,59.607843%,81.960784%);fill-opacity:1;" />
<path d="M 479.722656 571.886719 L 479.722656 265.679688 C 479.722656 254.402344 470.589844 245.265625 459.308594 245.265625 L 438.898438 245.265625 L 112.277344 571.886719 Z M 479.722656 571.886719 " style=" stroke:none;fill-rule:nonzero;fill:rgb(24.313725%,54.901961%,78.039216%);fill-opacity:1;" />
<path d="M 132.691406 367.75 L 418.484375 367.75 L 418.484375 449.402344 L 132.691406 449.402344 Z M 132.691406 367.75 " style=" stroke:none;fill-rule:nonzero;fill:rgb(52.941176%,80.784314%,85.098039%);fill-opacity:1;" />
<path d="M 163.308594 398.371094 L 183.722656 398.371094 L 183.722656 418.785156 L 163.308594 418.785156 Z M 163.308594 398.371094 " style=" stroke:none;fill-rule:nonzero;fill:rgb(7.058824%,37.647059%,60%);fill-opacity:1;" />
<path d="M 204.136719 398.371094 L 224.550781 398.371094 L 224.550781 418.785156 L 204.136719 418.785156 Z M 204.136719 398.371094 " style=" stroke:none;fill-rule:nonzero;fill:rgb(7.058824%,37.647059%,60%);fill-opacity:1;" />
<path d="M 244.964844 398.371094 L 265.378906 398.371094 L 265.378906 418.785156 L 244.964844 418.785156 Z M 244.964844 398.371094 " style=" stroke:none;fill-rule:nonzero;fill:rgb(7.058824%,37.647059%,60%);fill-opacity:1;" />
<path d="M 285.792969 398.371094 L 306.207031 398.371094 L 306.207031 418.785156 L 285.792969 418.785156 Z M 285.792969 398.371094 " style=" stroke:none;fill-rule:nonzero;fill:rgb(7.058824%,37.647059%,60%);fill-opacity:1;" />
<path d="M 330.328125 153.402344 L 567.882812 153.402344 C 581.203125 153.402344 592 164.203125 592 177.523438 L 592 302.804688 C 592 316.121094 581.203125 326.921875 567.882812 326.921875 L 330.328125 326.921875 C 317.007812 326.921875 306.207031 316.121094 306.207031 302.804688 L 306.207031 177.523438 C 306.207031 164.203125 317.007812 153.402344 330.328125 153.402344 Z M 330.328125 153.402344 " style=" stroke:none;fill-rule:nonzero;fill:rgb(99.215686%,71.372549%,18.431373%);fill-opacity:1;" />
<path d="M 449.101562 0.300781 C 387.097656 0.300781 336.828125 50.570312 336.828125 112.578125 L 336.828125 153.402344 L 377.65625 153.402344 L 377.65625 112.578125 C 377.65625 73.117188 409.644531 41.128906 449.101562 41.128906 C 488.5625 41.128906 520.550781 73.117188 520.550781 112.578125 L 520.550781 153.402344 L 561.378906 153.402344 L 561.378906 112.578125 C 561.378906 50.570312 511.109375 0.300781 449.101562 0.300781 Z M 449.101562 0.300781 " style=" stroke:none;fill-rule:nonzero;fill:rgb(85.490196%,86.666667%,87.45098%);fill-opacity:1;" />
<path d="M 173.515625 153.402344 L 193.929688 153.402344 L 193.929688 173.816406 L 173.515625 173.816406 Z M 173.515625 153.402344 " style=" stroke:none;fill-rule:nonzero;fill:rgb(52.941176%,80.784314%,85.098039%);fill-opacity:1;" />
<path d="M 173.515625 112.578125 L 193.929688 112.578125 L 193.929688 132.988281 L 173.515625 132.988281 Z M 173.515625 112.578125 " style=" stroke:none;fill-rule:nonzero;fill:rgb(52.941176%,80.784314%,85.098039%);fill-opacity:1;" />
<path d="M 173.515625 71.75 L 193.929688 71.75 L 193.929688 92.164062 L 173.515625 92.164062 Z M 173.515625 71.75 " style=" stroke:none;fill-rule:nonzero;fill:rgb(52.941176%,80.784314%,85.098039%);fill-opacity:1;" />
<path d="M 173.515625 30.921875 L 193.929688 30.921875 L 193.929688 51.335938 L 173.515625 51.335938 Z M 173.515625 30.921875 " style=" stroke:none;fill-rule:nonzero;fill:rgb(52.941176%,80.784314%,85.098039%);fill-opacity:1;" />
<path d="M 214.34375 30.921875 L 234.757812 30.921875 L 234.757812 51.335938 L 214.34375 51.335938 Z M 214.34375 30.921875 " style=" stroke:none;fill-rule:nonzero;fill:rgb(52.941176%,80.784314%,85.098039%);fill-opacity:1;" />
<path d="M 255.171875 30.921875 L 275.585938 30.921875 L 275.585938 51.335938 L 255.171875 51.335938 Z M 255.171875 30.921875 " style=" stroke:none;fill-rule:nonzero;fill:rgb(52.941176%,80.784314%,85.098039%);fill-opacity:1;" />
<path d="M 296 30.921875 L 316.414062 30.921875 L 316.414062 51.335938 L 296 51.335938 Z M 296 30.921875 " style=" stroke:none;fill-rule:nonzero;fill:rgb(52.941176%,80.784314%,85.098039%);fill-opacity:1;" />
<path d="M 520.550781 592.300781 L 30.621094 592.300781 C 13.707031 592.300781 0 578.59375 0 561.679688 L 0 531.058594 L 214.34375 531.058594 C 221.335938 531.058594 227.734375 535.007812 230.859375 541.265625 C 233.984375 547.523438 240.382812 551.472656 247.375 551.472656 L 306.207031 551.472656 C 313.199219 551.472656 319.597656 547.523438 322.722656 541.265625 C 325.84375 535.007812 332.246094 531.058594 339.238281 531.058594 L 551.171875 531.058594 L 551.171875 561.679688 C 551.171875 578.59375 537.464844 592.300781 520.550781 592.300781 Z M 520.550781 592.300781 " style=" stroke:none;fill-rule:nonzero;fill:rgb(85.490196%,86.666667%,87.45098%);fill-opacity:1;" />
<path d="M 575.78125 154.832031 C 506.566406 257.921875 393.527344 303.140625 316.679688 322.675781 C 320.691406 325.441406 325.445312 326.921875 330.324219 326.921875 L 567.878906 326.921875 C 581.199219 326.921875 592 316.121094 592 302.800781 L 592 177.523438 C 591.980469 167.273438 585.46875 158.171875 575.78125 154.832031 Z M 575.78125 154.832031 " style=" stroke:none;fill-rule:nonzero;fill:rgb(100%,63.529412%,18.823529%);fill-opacity:1;" />
<path d="M 469.515625 235.058594 C 469.566406 223.78125 460.472656 214.605469 449.195312 214.554688 C 437.917969 214.503906 428.742188 223.597656 428.691406 234.875 C 428.660156 242.203125 432.546875 248.980469 438.898438 252.644531 L 438.898438 286.09375 L 459.308594 286.09375 L 459.308594 252.644531 C 465.609375 249.023438 469.496094 242.324219 469.515625 235.058594 Z M 469.515625 235.058594 " style=" stroke:none;fill-rule:nonzero;fill:rgb(33.333333%,39.607843%,45.882353%);fill-opacity:1;" />
<path d="M 336.828125 132.988281 L 377.65625 132.988281 L 377.65625 153.402344 L 336.828125 153.402344 Z M 336.828125 132.988281 " style=" stroke:none;fill-rule:nonzero;fill:rgb(78.039216%,79.215686%,80%);fill-opacity:1;" />
<path d="M 520.550781 132.988281 L 561.378906 132.988281 L 561.378906 153.402344 L 520.550781 153.402344 Z M 520.550781 132.988281 " style=" stroke:none;fill-rule:nonzero;fill:rgb(78.039216%,79.215686%,80%);fill-opacity:1;" />
<path d="M 132.691406 367.75 L 418.484375 367.75 L 418.484375 388.164062 L 132.691406 388.164062 Z M 132.691406 367.75 " style=" stroke:none;fill-rule:nonzero;fill:rgb(44.313725%,76.862745%,81.960784%);fill-opacity:1;" />
</g>
</svg>

<svg xmlns="http://www.w3.org/2000/svg" height="788" viewBox="1 1 591.601 591" width="788"><path d="M479.723 204.438H71.449c-22.547 0-40.828 18.28-40.828 40.828V592.3h489.93V245.266c0-22.547-18.281-40.828-40.828-40.828Zm0 0" style="stroke:none;fill-rule:nonzero;fill:#c7cacc;fill-opacity:1"/><path d="M479.723 571.887V265.68c0-11.278-9.133-20.414-20.414-20.414H91.863c-11.281 0-20.414 9.136-20.414 20.414v306.207Zm0 0" style="stroke:none;fill-rule:nonzero;fill:#4398d1;fill-opacity:1"/><path d="M479.723 571.887V265.68c0-11.278-9.133-20.414-20.414-20.414h-20.41l-326.622 326.62Zm0 0" style="stroke:none;fill-rule:nonzero;fill:#3e8cc7;fill-opacity:1"/><path d="M132.691 367.75h285.793v81.652H132.691Zm0 0" style="stroke:none;fill-rule:nonzero;fill:#87ced9;fill-opacity:1"/><path d="M163.309 398.371h20.414v20.414h-20.414ZM204.137 398.371h20.414v20.414h-20.414ZM244.965 398.371h20.414v20.414h-20.414ZM285.793 398.371h20.414v20.414h-20.414Zm0 0" style="stroke:none;fill-rule:nonzero;fill:#126099;fill-opacity:1"/><path d="M330.328 153.402h237.555c13.32 0 24.117 10.801 24.117 24.121v125.282c0 13.316-10.797 24.117-24.117 24.117H330.328c-13.32 0-24.121-10.8-24.121-24.117V177.523c0-13.32 10.8-24.12 24.121-24.12Zm0 0" style="stroke:none;fill-rule:nonzero;fill:#fdb62f;fill-opacity:1"/><path d="M449.102.3c-62.004 0-112.274 50.27-112.274 112.278v40.824h40.828v-40.824c0-39.46 31.989-71.45 71.446-71.45 39.46 0 71.449 31.99 71.449 71.45v40.824h40.828v-40.824C561.379 50.57 511.109.301 449.102.301Zm0 0" style="stroke:none;fill-rule:nonzero;fill:#dadddf;fill-opacity:1"/><path d="M173.516 153.402h20.414v20.414h-20.414ZM173.516 112.578h20.414v20.41h-20.414ZM173.516 71.75h20.414v20.414h-20.414ZM173.516 30.922h20.414v20.414h-20.414ZM214.344 30.922h20.414v20.414h-20.414ZM255.172 30.922h20.414v20.414h-20.414ZM296 30.922h20.414v20.414H296Zm0 0" style="stroke:none;fill-rule:nonzero;fill:#87ced9;fill-opacity:1"/><path d="M520.55 592.3H30.622C13.707 592.3 0 578.595 0 561.68v-30.621h214.344a18.46 18.46 0 0 1 16.515 10.207 18.46 18.46 0 0 0 16.516 10.207h58.832a18.46 18.46 0 0 0 16.516-10.207 18.455 18.455 0 0 1 16.515-10.207h211.934v30.62c0 16.915-13.707 30.622-30.621 30.622Zm0 0" style="stroke:none;fill-rule:nonzero;fill:#dadddf;fill-opacity:1"/><path d="M575.781 154.832c-69.215 103.09-182.254 148.309-259.101 167.844a24.028 24.028 0 0 0 13.644 4.246H567.88c13.32 0 24.121-10.8 24.121-24.121V177.523a24.05 24.05 0 0 0-16.219-22.691Zm0 0" style="stroke:none;fill-rule:nonzero;fill:#ffa230;fill-opacity:1"/><path d="M469.516 235.059c.05-11.278-9.043-20.454-20.32-20.504-11.278-.051-20.454 9.043-20.505 20.32a20.4 20.4 0 0 0 10.207 17.77v33.449h20.41v-33.45a20.34 20.34 0 0 0 10.208-17.585Zm0 0" style="stroke:none;fill-rule:nonzero;fill:#556575;fill-opacity:1"/><path d="M336.828 132.988h40.828v20.414h-40.828ZM520.55 132.988h40.829v20.414H520.55Zm0 0" style="stroke:none;fill-rule:nonzero;fill:#c7cacc;fill-opacity:1"/><path d="M132.691 367.75h285.793v20.414H132.691Zm0 0" style="stroke:none;fill-rule:nonzero;fill:#71c4d1;fill-opacity:1"/></svg>
